dist/svgs/unicons/line/abacus.svg

<svg xmlns="http://www.w3.org/2000/svg" data-name="Layer 1" viewBox="0 0 24 24"><path d="M21 2a1 1 0 00-1 1v3h-4V5a1 1 0 00-2 0v1h-2V5a1 1 0 00-2 0v1H8V5a1 1 0 00-2 0v1H4V3a1 1 0 00-2 0v16a3 3 0 003 3h14a3 3 0 003-3V3a1 1 0 00-1-1zm-1 17a1 1 0 01-1 1H5a1 1 0 01-1-1v-3h2v1a1 1 0 002 0v-1h2v1a1 1 0 002 0v-1h4v1a1 1 0 002 0v-1h2zm0-5h-2v-1a1 1 0 00-2 0v1h-4v-1a1 1 0 00-2 0v1H8v-1a1 1 0 00-2 0v1H4V8h2v1a1 1 0 002 0V8h2v1a1 1 0 002 0V8h2v1a1 1 0 002 0V8h4z"/></svg>

<svg xmlns="http://www.w3.org/2000/svg" data-name="Layer 1" viewBox="0 0 24 24"><path d="M21,2a1,1,0,0,0-1,1V6H16V5a1,1,0,0,0-2,0V6H12V5a1,1,0,0,0-2,0V6H8V5A1,1,0,0,0,6,5V6H4V3A1,1,0,0,0,2,3V19a3,3,0,0,0,3,3H19a3,3,0,0,0,3-3V3A1,1,0,0,0,21,2ZM20,19a1,1,0,0,1-1,1H5a1,1,0,0,1-1-1V16H6v1a1,1,0,0,0,2,0V16h2v1a1,1,0,0,0,2,0V16h4v1a1,1,0,0,0,2,0V16h2Zm0-5H18V13a1,1,0,0,0-2,0v1H12V13a1,1,0,0,0-2,0v1H8V13a1,1,0,0,0-2,0v1H4V8H6V9A1,1,0,0,0,8,9V8h2V9a1,1,0,0,0,2,0V8h2V9a1,1,0,0,0,2,0V8h4Z"/></svg>
